src/img/icons/icon-ref.svg

<svg width="9" height="10" viewBox="0 0 9 10" fill="none">
<path fill-rule="evenodd" clip-rule="evenodd" d="M8.90662 4.7681L4.56908 0.10803C4.50706 0.04182 4.43576 0.00819 4.35485 0.00819C4.27451 0.00819 4.2031 0.04182 4.14119 0.10803L3.67541 0.60823C3.61339 0.67486 3.58272 0.75151 3.58272 0.83829C3.58272 0.92507 3.61339 1.00213 3.67541 1.06844L7.33363 4.99857L3.67541 8.92879C3.61339 8.99563 3.58272 9.07228 3.58272 9.15906C3.58272 9.2451 3.61339 9.32228 3.67541 9.38942L4.14119 9.889C4.2031 9.95573 4.27451 9.98915 4.35485 9.98915C4.43576 9.98915 4.50706 9.95573 4.56908 9.889L8.90662 5.22831C8.96865 5.1622 8.99943 5.08555 8.99943 4.99857C8.99943 4.91221 8.96865 4.83514 8.90662 4.7681ZM5.42533 4.99857C5.42533 4.91221 5.39466 4.83514 5.33206 4.7681L0.994977 0.10803C0.932499 0.04182 0.861084 0.00819 0.78075 0.00819C0.699948 0.00819 0.628542 0.04182 0.566514 0.10803L0.101313 0.60823C0.03951 0.67486 0.008154 0.75151 0.008154 0.83829C0.008154 0.92507 0.03951 1.00213 0.101313 1.06844L3.75907 4.99857L0.101313 8.92879C0.03951 8.99563 0.008154 9.07228 0.008154 9.15906C0.008154 9.2451 0.03951 9.32228 0.101313 9.38942L0.566514 9.889C0.628542 9.95573 0.699948 9.98915 0.78075 9.98915C0.861084 9.98915 0.932499 9.95573 0.994977 9.889L5.33206 5.22831C5.39466 5.1622 5.42533 5.08555 5.42533 4.99857Z" fill="#727272"/>
</svg>

<svg width="9" height="10" fill="none"><path fill-rule="evenodd" clip-rule="evenodd" d="M8.907 4.768L4.569.108a.286.286 0 00-.214-.1.286.286 0 00-.214.1l-.466.5a.327.327 0 00-.092.23c0 .087.03.164.092.23l3.659 3.93-3.659 3.93a.33.33 0 000 .46l.466.501c.062.067.134.1.214.1.08 0 .152-.033.214-.1l4.338-4.66a.33.33 0 000-.46zm-3.482.23a.328.328 0 00-.093-.23L.995.108a.288.288 0 00-.214-.1.287.287 0 00-.214.1L.1.608a.329.329 0 000 .46l3.658 3.93L.1 8.928a.33.33 0 000 .461l.466.5c.062.067.133.1.214.1.08 0 .151-.033.214-.1l4.337-4.66a.323.323 0 00.093-.23z" fill="#727272"/></svg>
